rospo-icon-theme-classic-common/24x24/apps/com.github.thejambi.psnotes.svg

<svg height="24" width="24" xmlns="http://www.w3.org/2000/svg"><path d="m20 21.5v-14.5c0-.554-.446-1-1-1h-14c-.554 0-1 .446-1 1v14.5c0 .554.446 1 1 1h14c .554 0 1-.446 1-1z" opacity=".2"/><path d="m20 21v-14.5c0-.554-.446-1-1-1h-14c-.554 0-1 .446-1 1v14.5c0 .554.446 1 1 1h14c .554 0 1-.446 1-1z" fill="#4691c8"/><path d="m20 7v-2c0-.554-.446-1-1-1h-14c-.554 0-1 .446-1 1v2z" fill="#474747"/><path d="m5.46875 2.5c-.2595885 0-.46875.2039324-.46875.4570313v2.0859377c0 .2530985.2091615.457031.46875.457031h1.0625c.2595885 0 .46875-.2039325.46875-.457031v-2.0859377c0-.2530989-.2091615-.4570313-.46875-.4570313zm4 0c-.2595885 0-.46875.2039324-.46875.4570313v2.0859377c0 .2530985.2091615.457031.46875.457031h1.0625c.259589 0 .46875-.2039325.46875-.457031v-2.0859377c0-.2530989-.209161-.4570313-.46875-.4570313zm4 0c-.259588 0-.46875.2039324-.46875.4570313v2.0859377c0 .2530985.209162.457031.46875.457031h1.0625c.259589 0 .46875-.2039325.46875-.457031v-2.0859377c0-.2530989-.209161-.4570313-.46875-.4570313zm4 0c-.259589 0-.46875.2039324-.46875.4570313v2.0859377c0 .2530985.209161.457031.46875.457031h1.0625c.259588 0 .46875-.2039325.46875-.457031v-2.0859377c0-.2530989-.209162-.4570313-.46875-.4570313z" opacity=".2"/><path d="m5.46875 2c-.2595885 0-.46875.2039324-.46875.4570313v2.0859374c0 .253099.2091615.4570313.46875.4570313h1.0625c.2595885 0 .46875-.2039323.46875-.4570313v-2.0859374c0-.2530989-.2091615-.4570313-.46875-.4570313zm4 0c-.2595885 0-.46875.2039324-.46875.4570313v2.0859374c0 .253099.2091615.4570313.46875.4570313h1.0625c.259589 0 .46875-.2039323.46875-.4570313v-2.0859374c0-.2530989-.209161-.4570313-.46875-.4570313zm4 0c-.259588 0-.46875.2039324-.46875.4570313v2.0859374c0 .253099.209162.4570313.46875.4570313h1.0625c.259589 0 .46875-.2039323.46875-.4570313v-2.0859374c0-.2530989-.209161-.4570313-.46875-.4570313zm4 0c-.259589 0-.46875.2039324-.46875.4570313v2.0859374c0 .253099.209161.4570313.46875.4570313h1.0625c.259588 0 .46875-.2039323.46875-.4570313v-2.0859374c0-.2530989-.209162-.4570313-.46875-.4570313z" fill="#8e8e8e"/><path d="m5.46875 2c-.2595885 0-.46875.2039324-.46875.4570313v.5c0-.2530989.2091615-.4570313.46875-.4570313h1.0625c.2595885 0 .46875.2039324.46875.4570313v-.5c0-.2530989-.2091615-.4570313-.46875-.4570313zm4 0c-.2595885 0-.46875.2039324-.46875.4570313v.5c0-.2530989.2091615-.4570313.46875-.4570313h1.0625c.259589 0 .46875.2039324.46875.4570313v-.5c0-.2530989-.209161-.4570313-.46875-.4570313zm4 0c-.259588 0-.46875.2039324-.46875.4570313v.5c0-.2530989.209162-.4570313.46875-.4570313h1.0625c.259589 0 .46875.2039324.46875.4570313v-.5c0-.2530989-.209161-.4570313-.46875-.4570313zm4 0c-.259589 0-.46875.2039324-.46875.4570313v.5c0-.2530989.209161-.4570313.46875-.4570313h1.0625c.259588 0 .46875.2039324.46875.4570313v-.5c0-.2530989-.209162-.4570313-.46875-.4570313z" fill="#fff" opacity=".2"/><g fill="none" stroke-linecap="round" stroke-width=".999937"><path d="m5.5070421 17.993s4.0410654.507 3.9997509-1.493c-.041312-1.999854-3.9997509-1.506873-3.9997509-1.506873m.0000982 5.999784v-5.999686" opacity=".2" stroke="#000" stroke-linejoin="bevel"/><path d="m5.5070421 17.493s4.0410654.507 3.9997509-1.493c-.041312-1.999854-3.9997509-1.506873-3.9997509-1.506873m.0000982 5.999784v-5.999686" stroke="#fff" stroke-linejoin="bevel"/><path d="m11.5032 19.999611s.504353 1.0009 1.999875 1.00042c1.495518-.000484 1.949605-.500031 1.996925-1.500031-.05328-2.030516-3.999945-1-4-3-.03359-1 .487017-1.500584 2.003075-1.500584 1.516054 0 1.999758.999936 1.999758.999936" opacity=".2" stroke="#000" stroke-linejoin="round"/><path d="m11.5032 19.499611s.504353 1.0009 1.999875 1.00042c1.495518-.000484 1.949605-.500031 1.996925-1.500031-.05328-2.030516-3.999945-1-4-3-.03359-1 .487017-1.500584 2.003075-1.500584 1.516054 0 1.999758.999936 1.999758.999936" stroke="#fff" stroke-linejoin="round"/></g><circle cx="8.5" cy="21" opacity=".2" r=".5"/><circle cx="8.5" cy="20.5" fill="#fff" r=".5"/><circle cx="17.5" cy="21" opacity=".2" r=".5"/><circle cx="17.5" cy="20.5" fill="#fff" r=".5"/></svg>

<svg xmlns="http://www.w3.org/2000/svg" width="24" height="24" version="1">
 <path style="opacity:0.2" d="M 20,21.5 20,7 C 20,6.446 19.554,6 19,6 L 5,6 C 4.446,6 4,6.446 4,7 l 0,14.5 c 0,0.554 0.446,1 1,1 l 14,0 c 0.554,0 1,-0.446 1,-1 z"/>
 <path style="fill:#4691c8" d="M 20,21 20,6.5 c 0,-0.554 -0.446,-1 -1,-1 l -14,0 c -0.554,0 -1,0.446 -1,1 L 4,21 c 0,0.554 0.446,1 1,1 l 14,0 c 0.554,0 1,-0.446 1,-1 z"/>
 <path style="fill:#474747" d="M 20,7 20,5 C 20,4.446 19.554,4 19,4 L 5,4 C 4.446,4 4,4.446 4,5 l 0,2 z"/>
 <path style="opacity:0.2" d="M 5.46875,2.5 C 5.2091615,2.5 5,2.7039324 5,2.9570313 L 5,5.042969 C 5,5.2960675 5.2091615,5.5 5.46875,5.5 l 1.0625,0 C 6.7908385,5.5 7,5.2960675 7,5.042969 L 7,2.9570313 C 7,2.7039324 6.7908385,2.5 6.53125,2.5 Z m 4,0 C 9.2091615,2.5 9,2.7039324 9,2.9570313 L 9,5.042969 C 9,5.2960675 9.2091615,5.5 9.46875,5.5 l 1.0625,0 C 10.790839,5.5 11,5.2960675 11,5.042969 L 11,2.9570313 C 11,2.7039324 10.790839,2.5 10.53125,2.5 Z m 4,0 C 13.209162,2.5 13,2.7039324 13,2.9570313 L 13,5.042969 C 13,5.2960675 13.209162,5.5 13.46875,5.5 l 1.0625,0 C 14.790839,5.5 15,5.2960675 15,5.042969 L 15,2.9570313 C 15,2.7039324 14.790839,2.5 14.53125,2.5 Z m 4,0 C 17.209161,2.5 17,2.7039324 17,2.9570313 L 17,5.042969 C 17,5.2960675 17.209161,5.5 17.46875,5.5 l 1.0625,0 C 18.790838,5.5 19,5.2960675 19,5.042969 L 19,2.9570313 C 19,2.7039324 18.790838,2.5 18.53125,2.5 Z"/>
 <path style="fill:#8e8e8e" d="M 5.46875,2 C 5.2091615,2 5,2.2039324 5,2.4570313 L 5,4.5429687 C 5,4.7960677 5.2091615,5 5.46875,5 l 1.0625,0 C 6.7908385,5 7,4.7960677 7,4.5429687 L 7,2.4570313 C 7,2.2039324 6.7908385,2 6.53125,2 Z m 4,0 C 9.2091615,2 9,2.2039324 9,2.4570313 L 9,4.5429687 C 9,4.7960677 9.2091615,5 9.46875,5 l 1.0625,0 C 10.790839,5 11,4.7960677 11,4.5429687 L 11,2.4570313 C 11,2.2039324 10.790839,2 10.53125,2 Z m 4,0 C 13.209162,2 13,2.2039324 13,2.4570313 l 0,2.0859374 C 13,4.7960677 13.209162,5 13.46875,5 l 1.0625,0 C 14.790839,5 15,4.7960677 15,4.5429687 L 15,2.4570313 C 15,2.2039324 14.790839,2 14.53125,2 Z m 4,0 C 17.209161,2 17,2.2039324 17,2.4570313 l 0,2.0859374 C 17,4.7960677 17.209161,5 17.46875,5 l 1.0625,0 C 18.790838,5 19,4.7960677 19,4.5429687 L 19,2.4570313 C 19,2.2039324 18.790838,2 18.53125,2 Z"/>
 <path style="opacity:0.2;fill:#ffffff" d="M 5.46875,2 C 5.2091615,2 5,2.2039324 5,2.4570313 l 0,0.5 C 5,2.7039324 5.2091615,2.5 5.46875,2.5 l 1.0625,0 C 6.7908385,2.5 7,2.7039324 7,2.9570313 l 0,-0.5 C 7,2.2039324 6.7908385,2 6.53125,2 l -1.0625,0 z m 4,0 C 9.2091615,2 9,2.2039324 9,2.4570313 l 0,0.5 C 9,2.7039324 9.2091615,2.5 9.46875,2.5 l 1.0625,0 C 10.790839,2.5 11,2.7039324 11,2.9570313 l 0,-0.5 C 11,2.2039324 10.790839,2 10.53125,2 l -1.0625,0 z m 4,0 C 13.209162,2 13,2.2039324 13,2.4570313 l 0,0.5 C 13,2.7039324 13.209162,2.5 13.46875,2.5 l 1.0625,0 C 14.790839,2.5 15,2.7039324 15,2.9570313 l 0,-0.5 C 15,2.2039324 14.790839,2 14.53125,2 l -1.0625,0 z m 4,0 C 17.209161,2 17,2.2039324 17,2.4570313 l 0,0.5 C 17,2.7039324 17.209161,2.5 17.46875,2.5 l 1.0625,0 C 18.790838,2.5 19,2.7039324 19,2.9570313 l 0,-0.5 C 19,2.2039324 18.790838,2 18.53125,2 l -1.0625,0 z"/>
 <path style="opacity:0.2;fill:none;stroke:#000000;stroke-width:0.999937;stroke-linecap:round;stroke-linejoin:bevel" d="m 5.5070421,17.993 c 0,0 4.0410654,0.507 3.9997509,-1.493 C 9.465481,14.500146 5.5070421,14.993127 5.5070421,14.993127 m 9.82e-5,5.999784 0,-5.999686"/>
 <path d="m 5.5070421,17.493 c 0,0 4.0410654,0.507 3.9997509,-1.493 -0.041312,-1.999854 -3.9997509,-1.506873 -3.9997509,-1.506873 m 9.82e-5,5.999784 0,-5.999686" style="fill:none;stroke:#ffffff;stroke-width:0.999937;stroke-linecap:round;stroke-linejoin:bevel"/>
 <path d="m 11.5032,19.999611 c 0,0 0.504353,1.0009 1.999875,1.00042 C 14.998593,20.999547 15.45268,20.5 15.5,19.5 c -0.05328,-2.030516 -3.999945,-1 -4,-3 -0.03359,-1 0.487017,-1.500584 2.003075,-1.500584 1.516054,0 1.999758,0.999936 1.999758,0.999936" style="opacity:0.2;fill:none;stroke:#000000;stroke-width:0.999937;stroke-linecap:round;stroke-linejoin:round"/>
 <path style="fill:none;stroke:#ffffff;stroke-width:0.999937;stroke-linecap:round;stroke-linejoin:round" d="m 11.5032,19.499611 c 0,0 0.504353,1.0009 1.999875,1.00042 C 14.998593,20.499547 15.45268,20 15.5,19 c -0.05328,-2.030516 -3.999945,-1 -4,-3 -0.03359,-1 0.487017,-1.500584 2.003075,-1.500584 1.516054,0 1.999758,0.999936 1.999758,0.999936"/>
 <circle cx="8.5" cy="21" r=".5" style="opacity:0.2"/>
 <circle style="fill:#ffffff" cx="8.5" cy="20.5" r=".5"/>
 <circle style="opacity:0.2" cx="17.5" cy="21" r=".5"/>
 <circle cx="17.5" cy="20.5" r=".5" style="fill:#ffffff"/>
</svg>
